X: 9049
T: Flock of Budgies (with piano acc.)
C: BB
R: hornpipe
Q: 1/8=320
M: C|
L: 1/8
V: 1 program 1 73 %flute
V: 2 volume=70 clef=bass m=D program 1 00
K: G
[V:1] (3DEF|"G"GBdB "Am7"cBAG|"Em7"EDEG "D7"FAdc|"G"Bdgd "C"cege|"Am7"agec "D7"dcAF |
[V:2] z2|G,,2[G2D2B2]A,,2[A2C2E2]|E,2[E2B2G2]D,2[A2D2F2]|G,2[G2D2B2]C,2[C2G2E2]|\
A,,2[A2C2E2]D,2[A2D2F2]|
%
[V:1] "G"GBdB "Am7"cBAG|"Em"EGFG EGBe|"G"dBgB "D"dcBA|"G"GB"D"AF "G"G2 :|
[V:2] G,,2[G2D2B2]A,,2[A2C2E2]|E,2[B2E2G2]B,,2[E2G2B2]|G,,2[G2D2B2]D,2[D2A2F2]|\
G,2[D,2A,,2F2][G,2D2B2]:|
%
[V:1] (3DEF|"G"GBdg "Am"ecAc|"G"Bdga "Bm"bagf|"A"e^cac ecac|"A7"agfe "D"d2 (3def |
[V:2] z2 |G,,2[G2D2B2]A,,2[A2E2C2]|G,,2[G2D2B2]B,,2[B2D2F2]|A,,2[A2^C2E2]E,2[E2^C2A2]|\
^C,2[G2A,2E2]D,2[D2A2F2]|
%
[V:1] "G"gdBd "Am"ecAc|"G"Bdga "Bm"bagf|"Em7"edBe "D"dcBA|"G"GB"D"AF "G"G2 :|
[V:2] G,,2[G2D2B2]A,,2[A2E2C2]|G,,2[G2D2B2]B,,2[B2D2F2]|E,2[B2D2G2]D,2[D2A2F2]|\
G,2[D,2A,,2F2][G,,2D,2B,2] :|
%%%%%%tune repeat
[V:1] (3DEF|"G"GBdB "Am7"cBAG|"Em7"EDEG "D7"FAdc|"G"Bdgd "C"cege|"Am7"agec "D7"dcAF |
[V:2] z2|G,,2[G2D2B2]A,,2[A2C2E2]|E,2[E2B2G2]D,2[A2D2F2]|G,2[G2D2B2]C,2[C2G2E2]|\
A,,2[A2C2E2]D,2[A2D2F2]|
%
[V:1] "G"GBdB "Am7"cBAG|"Em"EGFG EGBe|"G"dBgB "D"dcBA|"G"GB"D"AF "G"G2 :|
[V:2] G,,2[G2D2B2]A,,2[A2C2E2]|E,2[B2E2G2]B,,2[E2G2B2]|G,,2[G2D2B2]D,2[D2A2F2]|\
G,2[D,2A,,2F2][G,2D2B2]:|
%
[V:1] (3DEF|"G"GBdg "Am"ecAc|"G"Bdga "Bm"bagf|"A"e^cac ecac|"A7"agfe "D"d2 (3def |
[V:2] z2 |G,,2[G2D2B2]A,,2[A2E2C2]|G,,2[G2D2B2]B,,2[B2D2F2]|A,,2[A2^C2E2]E,2[E2^C2A2]|\
^C,2[G2A,2E2]D,2[D2A2F2]|
%
[V:1] "G"gdBd "Am"ecAc|"G"Bdga "Bm"bagf|"Em7"edBe "D"dcBA|1 "G"GB"D"AF "G"G2 :|2\
"G"GB"D"AF "G"G4-|G4 z4||
[V:2] G,,2[G2D2B2]A,,2[A2E2C2]|G,,2[G2D2B2]B,,2[B2D2F2]|E,2[B2D2G2]D,2[D2A2F2]|1\
G,2[D,2A,,2F2][G,,2D,2B,2] :|2 G,2[D,2A,,2F2][G,,4-D,4-B,4-]|[G,,4D,4B,4] z4||


%%%%%%%%%%%%%%%%%%%%%%%%%%%%%%%%%%%%%%%%%%%

